src/icons/hds/some/yle.svg

<svg xmlns="http://www.w3.org/2000/svg" width="24" height="24" viewBox="0 0 24 24">
  <g fill="none" fill-rule="evenodd">
    <rect width="24" height="24"/>
    <path fill="currentColor" d="M19.0714286,3 L4.92857143,3 C3.86383929,3 3,3.86383929 3,4.92857143 L3,19.0714286 C3,20.1361607 3.86383929,21 4.92857143,21 L19.0714286,21 C20.1361607,21 21,20.1361607 21,19.0714286 L21,4.92857143 C21,3.86383929 20.1361607,3 19.0714286,3 Z M5.78124488,9.20665326 L5.43353088,9.20665326 L5.34502022,9.21205486 C5.12161287,9.24076525 5,9.38314014 5,9.62034605 C5,9.75977955 5.03211511,9.95706044 5.10093319,10.2362912 L5.13842205,10.3828473 L6.12413618,13.8987401 L6.16491224,14.0351467 C6.33955517,14.5577833 6.65483721,14.8062317 7.18905373,14.841362 L7.32721431,14.8457357 L7.72257395,14.8457357 L7.61701647,15.3683871 C7.58804019,15.5010027 7.55905499,15.6220895 7.5359248,15.6944301 C7.35488503,16.2561904 7.07458637,16.3750137 6.59262316,16.3750137 C6.3081712,16.3750137 6.09373195,16.359308 5.92479947,16.3420566 L5.74235537,16.3215193 C5.62777324,16.3085561 5.53641537,16.2979188 5.4526165,16.2979188 C5.25419275,16.2979188 5.13021906,16.4025364 5.10232601,16.5884914 L5.09631739,16.6730983 L5.09631739,16.9049304 L5.10243998,16.9959689 C5.12573796,17.1574793 5.21250796,17.2320697 5.31047796,17.2818381 L5.37018578,17.3092172 C5.60478841,17.4158983 5.8994868,17.4735656 6.78594202,17.4735656 C7.67441525,17.4735656 8.33369003,16.9976222 8.54930965,16.1983862 L8.82744186,15.1181981 L8.82744186,15.1181981 L10.034449,10.1512489 C10.069575,9.9958444 10.1176824,9.75789889 10.1176824,9.62034605 C10.1176824,9.40055359 9.99290069,9.24866439 9.79347247,9.21412635 L9.70357921,9.20665326 L9.37522446,9.20665326 L9.29451784,9.21103677 C9.09116145,9.23478749 8.98002239,9.35800562 8.89695329,9.65212364 L8.86699287,9.77056835 L7.93894605,13.8048853 L7.73232198,13.8048853 L7.65124468,13.8027187 C7.42368516,13.7892462 7.30554169,13.7074558 7.21142774,13.4072937 L7.17709462,13.2842036 L6.21546815,9.64024068 C6.15786468,9.43300301 6.0846663,9.25160028 5.86903212,9.21384705 L5.78124488,9.20665326 Z M16.6599251,9.05167666 C14.9176269,9.05167666 14.1396656,10.0020242 14.1396656,12.1324651 C14.1396656,14.2086933 14.8650902,14.9807032 16.8146965,14.9807032 C17.6845972,14.9807032 18.2563791,14.861572 18.4790105,14.7600556 C18.6014765,14.7076215 18.7206168,14.6402868 18.7484884,14.4457056 L18.754589,14.3541955 L18.754589,14.1418936 L18.7485954,14.0571635 C18.7207702,13.8709336 18.5970771,13.7661326 18.398803,13.7661326 C18.346061,13.7661326 18.2923157,13.7732926 18.2321047,13.7840047 L17.8947658,13.8458055 C17.7021968,13.8752156 17.4374304,13.9015448 17.0461866,13.9015448 C15.64247,13.9015448 15.4174893,13.6587934 15.3645155,12.5706394 L15.3587168,12.4301734 L18.1216168,12.4301734 L18.2574404,12.4257902 C18.8167079,12.3880295 19,12.1092653 19,11.7049541 L18.9960756,11.4745907 C18.957289,10.380183 18.6016646,9.05167666 16.6599251,9.05167666 Z M12.1383229,6.25 L11.3075169,6.25 C11.1713554,6.25 10.829209,6.25 10.7681258,6.54637141 L10.7587198,6.64447035 L10.7587198,7.01233028 L10.7605129,7.05288356 C10.773159,7.19395825 10.859416,7.3869698 11.2269009,7.4208969 L11.3457908,7.42609147 L11.5502942,7.42609147 L11.5502942,14.3349149 L11.5523488,14.4314656 C11.5652298,14.7083021 11.6435537,14.8692213 11.9219213,14.8986368 L12.0223042,14.9035501 L12.2932311,14.9035501 L12.3884003,14.8980208 C12.6494614,14.8655008 12.7289224,14.6917255 12.7433574,14.4349729 L12.7459502,14.3349149 L12.7450686,7.05036584 C12.7366885,6.63212651 12.6594175,6.25 12.1383229,6.25 Z M16.6807551,9.97472941 C17.484162,9.97440783 17.8333712,10.4219209 17.892149,11.2874414 L17.8998064,11.4546178 L15.3807782,11.4567384 L15.3913315,11.2797424 C15.4675847,10.3683161 15.8653408,9.97511604 16.6807551,9.97472941 Z"/>
  </g>
</svg>

<svg viewBox="0 0 24 24" role="img" xmlns="http://www.w3.org/2000/svg"><g fill="none" fill-rule="evenodd"><path d="M0 0h24v24H0z"/><path d="M19.071 3H4.93A1.93 1.93 0 003 4.929V19.07A1.93 1.93 0 004.929 21H19.07A1.93 1.93 0 0021 19.071V4.93A1.93 1.93 0 0019.071 3zM5.781 9.207h-.347l-.089.005C5.122 9.241 5 9.383 5 9.62c0 .14.032.337.1.616l.038.147.986 3.516.04.136c.176.523.49.771 1.025.806l.138.005h.396l-.106.522a4.166 4.166 0 01-.081.326c-.181.562-.461.681-.943.681-.285 0-.5-.016-.668-.033l-.183-.02c-.114-.013-.206-.024-.29-.024-.198 0-.322.105-.35.29l-.006.085v.232l.006.091c.024.161.11.236.208.286l.06.027c.235.107.53.165 1.416.165.888 0 1.548-.476 1.763-1.276l.278-1.08 1.207-4.967c.036-.155.084-.393.084-.53 0-.22-.125-.372-.325-.407l-.09-.007h-.328l-.08.004c-.204.024-.315.147-.398.441l-.03.119-.928 4.034h-.207l-.08-.002c-.228-.014-.346-.096-.44-.396l-.035-.123-.962-3.644c-.057-.207-.13-.388-.346-.426l-.088-.007zm10.879-.155c-1.742 0-2.52.95-2.52 3.08 0 2.077.725 2.849 2.675 2.849.87 0 1.441-.12 1.664-.22.122-.053.242-.12.27-.315l.006-.092v-.212l-.006-.085c-.028-.186-.152-.29-.35-.29a.951.951 0 00-.167.017l-.337.062c-.193.03-.458.056-.849.056-1.404 0-1.629-.243-1.681-1.331l-.006-.14h2.763l.135-.005c.56-.038.743-.317.743-.721l-.004-.23c-.039-1.095-.394-2.423-2.336-2.423zM12.138 6.25h-.83c-.137 0-.479 0-.54.296l-.01.098v.368l.003.04c.012.142.098.335.466.369l.119.005h.204v6.909l.002.096c.013.277.092.438.37.468l.1.005h.271l.095-.006c.261-.032.34-.206.355-.463l.003-.1V7.05c-.01-.418-.087-.8-.608-.8zm4.543 3.725c.803 0 1.152.447 1.211 1.312l.008.168-2.52.002.011-.177c.077-.912.474-1.305 1.29-1.305z" fill="currentColor"/></g></svg>
